!!!!SEGMENT: pl-kozmzk--mzk-m-159--013_walczynski-franciszek--praeludia-organi-op-5-adagio.krn
!!!cenid: 18xx:2756
!!!COM: Walczyński, Franciszek
!!!COM-rismID: pe30021989
!!!CDT: ~1852-1937
!!!CNT: Polish
!!!GTL: Praeludia organi op. 5
!!!OTL: 13. Adagio
!!!PDT: 1894
!!!AGN: Secular; Prelude
!!!SMS-siglum: PL-KOZmzk
!!!SMS-shelfmark: mzk/m/159
!!!SMS-shelfwork: 013 G
!!!SMS-variant:
!!!SMS-altvar:
!!!NIFC-rismSourceID: 1001084394
!!!NIFC-rismChildID: 1001116630
!!!NIFC-islandoraID: pl-kozmzk:2265
!!!URL-pdf-islandora: https://repozytorium.nifc.pl/islandora/object/pl-kozmzk%3A2265/datastream/PDF/view
!!!URL-scan: https://polish.musicsources.pl/pl/lokalizacje/galeria/druki-muzyczne/7406 @EN{Scan on Polish Music Sources Website} @PL{Skany w portalu Dziedzictwo Muzyki Polskiej w otwartym dostępie}
!!!ONB-nifc: UWAGA: numeracja plików zgodna z numeracją źrodłową
!!!OMD: 13. Adagio.
!!!AIN: 2 empty
!!!key: F#
**kern	**kern	**dynam
*part2	*part1	*part1
*staff2	*staff1	*
*Iempty	*Iempty	*
*I"	*I"	*
*clefF4	*clefG2	*
*k[f#c#g#d#a#e#]	*k[f#c#g#d#a#e#]	*
*F#:	*F#:	*
*M2/4	*M2/4	*
=1	=1	=1
*^	*^	*
(4A#/	(8F#\L	(4f#/	8c#\L	p
.	8D#\	.	8d#\	.
8d#/L	8BB\	4g#/	8f#\	.
8c#/J	8C#\J	.	8e#\J	.
=2	=2	=2	=2	=2
*	*	*	*	*above
!	!	!	!	!
8c#/L	2FF#\)	2a#/)	[2f#\	<
8C#/	.	.	.	.
8F#/	.	.	.	.
8A#/J)	.	.	.	.
=3	=3	=3	=3	=3
(4c#/	(4AA#\	(4cc#/	8f#\L]	[
.	.	.	8e#\J	.
!	!	!	!	!
4d#/	8BB\L	4b/	[4f#\	>
.	8BB#X\J	.	.	.
=4	=4	=4	=4	=4
8c#/L	2C#\)	4a#/	4f#\]	.
8B#X/J	.	.	.	.
4c#/)	.	4g#/)	4e#\	.
=5	=5	=5	=5	=5
!	!	!	!	!
(4.B/	(4.G#\	(8b/L	4d#\	] fp
.	.	8a#/	.	.
.	.	8g#/	8e#\L	.
8B#X/)	8G##X\)	8f#/J)	8d#\J	.
=6	=6	=6	=6	=6
(8A#/L	8A#\	(4f#/	[4d#\	.
8AA#/	4AA#\	.	.	.
8A#/	.	8e#/L	8d#\L]	.
8D#/J)	8D#\	8f##X/J)	8c#\J	.
=7	=7	=7	=7	=7
!	!	!	!	!
(8D#/L	(4BB\	(4g#/	4d#\	pp
8B/	.	.	.	.
!	!	!LO:N:acc=n#	!	!
8A#/	4C#\	8f#/L	8c#\L	>
8G#/J	.	8e#/J	8B\J	.
=8	=8	=8	=8	=8
8B/L	2F#;\)	4g#/	4e#\	.
8c#/J	.	.	.	.
4A#;/)	.	4f#;/)	4c#\	]
!!LO:LB:g=original
=9	=9	=9	=9	=9
*	*	*	*	*below
!	!	!	!	!LO:DY:a
[2A#/	(8AA#\L	(4.a#^/	8c##X\L	p <
.	8BB\	.	8d#\	.
.	8BB#X\	.	8d##X\	.
.	8C##X\J	8g#/	[8e#\J	.
=10	=10	=10	=10	=10
4.A#/]	2D#\)	4g#/	8e#\L]	[ >
.	.	.	8c##X\J	.
.	.	4f#/)	4d#\	]
8A#/	.	.	.	.
=11	=11	=11	=11	=11
[2G#/	(8BB#X\L	(4.g#^/	8d#\L	.
.	8AA#\J	.	8c#\	.
.	4GG#\	.	8B#X\	.
.	.	8f#/	8d#\J	.
=12	=12	=12	=12	=12
*	*	*	*	*^
2G#/]	8C#\L	4f#/	4d#\	>	.
.	8BB#X\	.	.	.	.
.	8C#\	4e#/)	[4c#\	.	.
.	8BBn\J	.	.	.	.
=13	=13	=13	=13	=13	=13
(4F#/	2AA#\)	(4.f#/	(8c#\L]	]	<
.	.	.	8B#X\	.	.
8A#/L	.	.	8c#\	.	.
!	!	!	!	!LO:HP:a	!
8G#/J)	.	8e#/	8c##X\J)	<	[[
=14	=14	=14	=14	=14	=14
(8F#/L	(8BB\L	8d#/L	2d#\	[	.
8G#/	8GG#\	8b/	.	.	.
8F##X/	8AA#\	8a#/	.	.	.
8G#/J)	8BB\J	8g#/J)	.	.	.
*	*	*	*	*v	*v
=15	=15	=15	=15	=15
*	*	*	*	*
!	!	!	!	!
!	!	!	!	!LO:DY:a
(8A#/L	2C#\)	(4f#/	[2c#\	pp
!	!	!	!	!LO:HP:a
8An/	.	.	.	>
!LO:TX:b:i:t=rit.	!	!	!	!
8G#/	.	4e#/	.	.
[8B/J)	.	.	.	.
=16	=16	=16	=16	=16
(8B/L]	2FF#;\	2f#;/)	2c#\]	.
16A#X/L	.	.	.	]
16G#/JJ	.	.	.	.
4A#;/)	.	.	.	.
*v	*v	*	*	*
*	*v	*v	*
==	==	==
*-	*-	*-
!!!system-decoration: {(s1,s2)}
!!!EED: Andrzej Borzym
!!!EEV: 2021-08-08
!!!ENC: Katarzyna Serwa
!!!END: 2021-07-26
!!!YEC: Copyright 2022 Narodowy Instytut Fryderyka Chopina (https://polishscores.org)
!!!YEM: License CC-BY-4.0 (https://creativecommons.org/licenses/by/4.0)
